X:1
T:Title
%%score { ( 1 3 ) | ( 2 4 ) }
L:1/8
Q:1/4=112
M:4/4
K:G
V:1 treble nm="Grand Piano"
V:3 treble 
V:2 bass 
V:4 bass 
V:1
 G2 B2 A2 D2 | [B,G]2 [CA]2 B2 d2 | e4 d2 [DB]2 | B4 A2 z2 | G2 B2 A2 D2 | [B,G]2 [CA]2 B2 d2 | %6
w: Thomas~O'Neill * * *||||||
 e4 d2 B2 | [CFA]4 [B,G]2 z2 | B3 B B3 B | B2 [G^c]2 [Fd]2 [A=c]2 | B3 B B3 B | %11
w: |||||
 B2 [G^c]2 [Fd]2 [A=c]2 | [GB]2 [GB]2 [^Ge]3 [Gd] | [EAc]2 [D^GB]2 [CA]2 z2 | %14
w: |||
 [DA]2 [DA]2 [Dd]3 [Dc] | [DB]2 [A,DA]2 [B,DG]2 [D=FG]2 | G4 z4 | [B,DB]2 z2 [G^c]4 | [Fd]4 [DF]4 | %19
w: |||||
 [B,DG]6 z2 |] %20
w: |
V:2
 [G,B,]2 [G,D]2 [D,F,D]2 [D,A,C]2 | [G,,G,]2 [G,,G,]2[K:treble] [G,D]2 [G,B,G]2 | %2
 [G,CG]4 [G,B,G]2[K:bass] [G,,G,]2 | [D,G,D]4 [D,F,D]2 z2 | [G,B,]2 [G,D]2 [D,F,D]2 [D,A,C]2 | %5
 [G,,G,]2 [G,,G,]2[K:treble] [G,D]2 [G,B,G]2 | [G,CG]4 [G,B,G]2 [G,DG]2 | D,4 G,,2 z2 | %8
 [G,D]3 [G,D] [G,D]3 [F,A,^D] | [E,G,E]2 [E,A,]2 [D,A,]2 [D,D]2 | %10
 [G,DG]3 [G,D][K:bass] [G,D]3 [F,A,^D] | [E,G,E]2 [E,A,]2 [D,A,]2 [D,D]2 | %12
 [G,D]2 [=F,D]2 [E,B,]3 [E,B,] | A,,2 B,,2 C,2 z2 | [D,F,]2 [C,A,]2 [B,,G,]3 [A,,F,] | %15
 [G,,G,]2 G,,2 G,,2 B,,2 | z4 A4 | G,,2 z2 [E,A,]4 | A,4 C4 | G,,6 z2 |] %20
V:3
 x8 | x8 | x8 | x8 | x8 | x8 | x8 | x8 | x8 | x8 | x8 | x8 | x8 | x8 | x8 | x8 | [CE]8 | x8 | x8 | %19
 x8 |] %20
V:4
 x8 | x4[K:treble] x4 | x6[K:bass] x2 | x8 | x8 | x4[K:treble] x4 | x8 | x8 | x8 | x8 | %10
 x4[K:bass] x4 | x8 | x8 | x8 | x8 | x8 | C,8 | x8 | D,8 | x8 |] %20

